X:2030
T:Go to Berwick, Johnny
M:3/2
O:Scotland
O:England
R:Triple Hornpipe
Z:Richard Robinson 
%%TUNEURL: http://www.leeds.ac.uk/music/Info/RRTuneBk/gettune/000007cb.html
%%ID:000007cb
K:A
eAAe f/e/d/c/|eAAe ca|eAAe f/e/d/c/|dBBc df::
a>gaA c/d/e/c/|a>gaA ce|\
a>gaA c/d/e/c/|dffB df::
ee f/e/d/c/ f/e/d/c/|ee f/e/d/c/ea|\
ee f/e/d/c/ f/e/d/c/|dBBc df:|
